X:5257
T:Price of the Pig
O:england
R:Jig
C:Traditional, arr. Roger Landes
M:6/8
L:1/8
K:AMix
{a}eee {c}AAA|{d}BBB GGG|{a}eee {f}edB|def g{a}g{f}g|
{a}eee {c}AAA|{d}BBB GGG|{a}eee {f}ede|BAA A2d:|
efg aAA|efg aAA|age {f}edB|def g{a}g{f}g|
{a}eee {c}AAA|{d}BBB GGG|{a}eee {f}ede BAA A2d:|
